apps/site/public/icons/technologies/mysqlsimple.svg

<svg width="56" height="46" viewBox="0 0 56 46" fill="none" xmlns="http://www.w3.org/2000/svg">
    <g clipPath="url(#clip0_6771_8209)">
      <path
        fillRule="evenodd"
        clipRule="evenodd"
        d="M38.2924 4.76483C38.1239 4.76332 37.956 4.78965 37.793 4.84315V4.87251H37.8164C37.9327 5.09429 38.0632 5.30383 38.2065 5.49906C38.3054 5.74381 38.3886 5.98855 38.4875 6.2333L38.5109 6.20067C38.6024 6.1116 38.6743 5.99475 38.7198 5.86114C38.7653 5.72754 38.7829 5.58158 38.771 5.43706C38.7166 5.33198 38.6671 5.22302 38.6227 5.11073C38.5499 4.95736 38.3912 4.88231 38.295 4.7583"
        fill="#5D87A1"
      />
      <path
        d="M13.2521 35.7332H11.1232C11.0511 31.9844 10.8444 28.4584 10.5033 25.1551H10.4836L7.24601 35.7332H5.62886L2.40768 25.1551C2.16713 28.3259 2.01624 31.8519 1.95501 35.7332H0C0.124648 31.0158 0.438456 26.5908 0.941423 22.4583H3.5656L6.63589 32.214L9.72586 22.4583H12.2451C12.8005 27.2967 13.1285 31.7217 13.2291 35.7332"
        fill="#00758F"
      />
      <path
        d="M22.5778 25.8999C21.714 30.8173 20.5764 34.3854 19.165 36.6042C18.0612 38.318 16.8538 39.1749 15.5427 39.1749C15.0895 39.1495 14.6452 39.0331 14.2339 38.8321V37.6633C14.5256 37.7046 14.8197 37.724 15.1141 37.7216C15.6556 37.7477 16.1864 37.5578 16.5996 37.1903C16.8052 37.0124 16.9717 36.7902 17.0881 36.5388C17.2044 36.2875 17.2677 36.0129 17.2737 35.7336C17.1872 34.9612 17.0114 34.2028 16.7502 33.4748L14.4204 25.8999H16.5047L18.1833 31.5623C18.5564 32.851 18.7123 33.7502 18.6513 34.2598C19.5982 31.5606 20.2417 28.7551 20.5687 25.8999H22.5778Z"
        fill="#00758F"
      />
      <path d="M51.5359 35.7332H45.1553V22.4583H47.3029V34.0987H51.5359V35.7332Z" fill="#F29111" />
      <path
        fillRule="evenodd"
        clipRule="evenodd"
        d="M43.6827 35.7604L41.3865 34.6001C41.5949 34.4283 41.7871 34.2369 41.9605 34.0282C42.9345 32.8558 43.4225 31.117 43.4247 28.8118C43.4247 24.5761 41.8025 22.4583 38.5581 22.4583C36.9649 22.4583 35.7244 22.996 34.8364 24.0714C33.8625 25.2483 33.3755 26.9804 33.3755 29.268C33.3755 31.5203 33.8055 33.1731 34.6655 34.2265C35.4567 35.1741 36.6478 35.648 38.2388 35.648C38.7916 35.6548 39.3424 35.579 39.8739 35.4232L42.8635 37.2083L43.6827 35.7604ZM36.2425 32.891C35.7373 32.058 35.4847 30.7181 35.4847 28.8713C35.4847 25.6449 36.4403 24.0318 38.3517 24.0318C38.7866 24.0023 39.2212 24.0944 39.6091 24.2981C39.997 24.5019 40.3237 24.8097 40.5544 25.1888C41.0618 26.0262 41.3155 27.3485 41.3155 29.1556C41.3155 32.4062 40.3587 34.0315 38.4452 34.0315C38.0103 34.0613 37.5756 33.9694 37.1876 33.7656C36.7996 33.5618 36.473 33.2538 36.2425 32.8745"
        fill="#F29111"
      />
      <path
        d="M32.3873 31.9791C32.4007 32.4907 32.2961 32.9988 32.0813 33.4659C31.8665 33.9331 31.5468 34.3475 31.1459 34.6787C30.3205 35.3795 29.2128 35.731 27.8227 35.7332C26.4682 35.7135 25.1522 35.292 24.0503 34.5252L24.6196 33.414C25.4976 33.8795 26.4739 34.1421 27.4729 34.1815C28.1413 34.2194 28.8033 34.0372 29.3523 33.6643C29.581 33.4979 29.7659 33.2811 29.8917 33.0316C30.0175 32.7822 30.0806 32.5072 30.0759 32.2294C30.0759 31.4619 29.5272 30.8045 28.5155 30.2572C27.5861 29.76 25.7239 28.7188 25.7239 28.7188C24.7122 28.0047 24.2081 27.2339 24.2081 25.9691C24.1901 25.491 24.2824 25.015 24.4782 24.5761C24.6741 24.1373 24.9685 23.7467 25.3398 23.433C26.1545 22.7648 27.1971 22.4183 28.2617 22.4619C29.4561 22.4515 30.6269 22.7859 31.626 23.423L31.1116 24.5309C30.3059 24.1863 29.4367 24.0047 28.5566 23.9969C27.9891 23.9591 27.4275 24.1293 26.9825 24.4741C26.7976 24.6239 26.6485 24.811 26.5454 25.0225C26.4424 25.234 26.3879 25.4648 26.3858 25.6988C26.3858 26.4663 26.9482 27.1304 27.9873 27.701C28.9304 28.1983 30.8372 29.2561 30.8372 29.2561C31.8661 29.9736 32.3942 30.7344 32.3942 31.9891"
        fill="#F29111"
      />
      <path
        fillRule="evenodd"
        clipRule="evenodd"
        d="M54.133 18.3205C53.0987 18.2466 52.0605 18.3962 51.0893 18.759C50.8546 18.8527 50.4758 18.8527 50.4457 19.1506C50.5697 19.2744 50.5865 19.4853 50.6971 19.6526C50.912 20.0148 51.1875 20.3374 51.5117 20.6066C51.8469 20.8576 52.1821 21.1087 52.5173 21.3262C53.1274 21.7044 53.8179 21.922 54.4146 22.3002C54.7498 22.5178 55.1051 22.799 55.4504 23.0366C55.6214 23.1605 55.732 23.3713 55.9532 23.4416V23.3948C55.8426 23.2542 55.8091 23.06 55.7018 22.8927C55.5443 22.7387 55.3867 22.5948 55.2292 22.4408C54.7713 21.8322 54.2218 21.2981 53.6 20.8576C53.0972 20.5229 51.9977 20.0409 51.7966 19.4652L51.7631 19.4317C52.1307 19.3802 52.493 19.2962 52.8458 19.1807C53.3788 19.0401 53.8514 19.0702 54.4146 18.9297C54.666 18.8661 54.9174 18.7891 55.1688 18.7121V18.5682C54.8839 18.287 54.6828 17.8987 54.3844 17.6444C53.5719 16.9383 52.7068 16.2949 51.7966 15.7197C51.3072 15.4051 50.6803 15.2043 50.1607 14.9365C49.9764 14.8428 49.6613 14.7959 49.5507 14.6386C49.2935 14.26 49.0777 13.8549 48.907 13.4303C48.4545 12.5701 48.012 11.6161 47.6198 10.7057C47.3901 10.0956 47.1236 9.49981 46.822 8.92169C45.2029 6.24397 43.4464 4.64403 40.748 3.06083C40.1105 2.75475 39.4337 2.53848 38.7367 2.41818C38.3411 2.40144 37.9489 2.37132 37.5567 2.35793C37.3055 2.19037 37.0668 2.00467 36.8427 1.8023C35.9477 1.23663 33.6415 0.0149231 32.9844 1.62825C32.5587 2.63239 33.6113 3.63654 33.9901 4.16539C34.292 4.53143 34.559 4.92474 34.7879 5.34024C34.8985 5.60801 34.9287 5.88917 35.0393 6.17033C35.2688 6.88698 35.542 7.58896 35.8572 8.27234C36.025 8.61041 36.2189 8.93494 36.4371 9.24301C36.5612 9.41372 36.7723 9.49405 36.8293 9.77521C36.6081 10.0865 36.5913 10.5584 36.4673 10.9501C35.9041 12.7207 36.1321 14.9131 36.9232 16.2151C37.1746 16.6067 37.7713 17.467 38.5691 17.1356C39.2764 16.8544 39.1188 15.9641 39.3233 15.1809C39.3702 14.9901 39.3401 14.8662 39.4339 14.7424V14.7725C39.6518 15.211 39.8731 15.6327 40.0775 16.0745C40.6367 16.8803 41.3253 17.5883 42.1156 18.1699C42.4911 18.4544 42.7861 18.9397 43.2621 19.1104V19.0635H43.2285C43.1244 18.9433 43.0036 18.8385 42.8699 18.7523C42.5712 18.4622 42.2976 18.1476 42.0519 17.8117C41.388 16.9116 40.8004 15.9577 40.2954 14.9599C40.044 14.4746 39.8261 13.9558 39.625 13.4571C39.5311 13.2696 39.5311 12.9851 39.3736 12.8914C39.0836 13.2173 38.8306 13.5743 38.6194 13.9558C38.321 14.6252 38.2841 15.462 38.1802 16.3222C38.1165 16.3222 38.1501 16.3222 38.1165 16.3557C37.6171 16.2285 37.4461 15.7131 37.255 15.2746C36.7676 13.9296 36.7183 12.4652 37.1143 11.0906C37.2249 10.7559 37.6942 9.72835 37.5065 9.41706C37.4126 9.11917 37.0975 8.94846 36.9265 8.71416C36.7068 8.39781 36.5171 8.06164 36.36 7.71002C35.9846 6.83307 35.7969 5.86239 35.3879 4.98544C35.1622 4.56064 34.8997 4.15634 34.6035 3.77712C34.2775 3.3998 33.989 2.99176 33.742 2.55876C33.6616 2.3847 33.5543 2.10354 33.6783 1.9161C33.6871 1.86231 33.7137 1.81299 33.7537 1.77599C33.7938 1.73899 33.8452 1.71644 33.8996 1.71193C34.1007 1.53788 34.684 1.75544 34.8851 1.85251C35.4307 2.05589 35.9523 2.31855 36.4405 2.63574C36.6584 2.79306 36.893 3.08761 37.1779 3.16794H37.5132C38.016 3.27839 38.5791 3.19806 39.0518 3.33864C39.8465 3.60501 40.6053 3.96812 41.3111 4.41977C43.3876 5.74196 45.0762 7.58977 46.2052 9.77521C46.393 10.1367 46.4734 10.4647 46.6444 10.8396C46.9796 11.6094 47.3818 12.3927 47.7103 13.1424C47.9985 13.8834 48.3732 14.5878 48.8266 15.2411C49.0612 15.5758 50.0032 15.7432 50.4256 15.9105C50.7942 16.0369 51.1556 16.1833 51.5083 16.349C52.0413 16.6837 52.5743 17.0519 53.0771 17.4134C53.3285 17.6008 54.1129 17.9925 54.1598 18.3071"
        fill="#00758F"
      />
      <path
        d="M55.6178 35.7333H55.9533V33.7666H55.4634L55.0675 35.1068L54.6112 33.7666H54.1415V35.7333H54.4502V34.2354L54.9031 35.7333H55.138L55.5909 34.2354L55.6178 35.7333ZM52.994 35.7333H53.3295V34.0985H53.7825V33.7666H52.5176V34.0985H52.984L52.994 35.7333Z"
        fill="#F29111"
      />
    </g>
    <defs>
      <clipPath id="clip0_6771_8209">
        <rect width="55.9533" height="38.35" fill="white" transform="translate(0 0.824951)" />
      </clipPath>
    </defs>
  </svg>

<svg xmlns="http://www.w3.org/2000/svg" width="56" height="46" fill="none" viewBox="0 0 56 46"><path fill="#5d87a1" d="M38.292 4.765a1.6 1.6 0 0 0-.499.078v.03h.023q.175.332.39.626c.1.245.183.49.281.734l.024-.032a.86.86 0 0 0 .209-.34 1.1 1.1 0 0 0 .051-.424 4 4 0 0 1-.148-.326c-.073-.154-.232-.229-.328-.353"/><path fill="#00758f" d="M13.252 35.733h-2.129q-.108-5.623-.62-10.578h-.02L7.247 35.733H5.629L2.408 25.155q-.36 4.756-.453 10.578H0q.187-7.075.941-13.275h2.625l3.07 9.756 3.09-9.756h2.52q.832 7.258.983 13.275m9.349-9.833q-1.296 7.375-3.413 10.704-1.656 2.57-3.622 2.57a3.4 3.4 0 0 1-1.31-.342v-1.169q.44.063.881.059a2.08 2.08 0 0 0 1.486-.532c.205-.178.372-.4.488-.651a2 2 0 0 0 .186-.805 10 10 0 0 0-.524-2.26L14.42 25.9h2.085l1.678 5.662q.56 1.933.468 2.698a38.5 38.5 0 0 0 1.918-8.36z"/><path fill="#f29111" d="M51.536 35.733h-6.38V22.458h2.147v11.64h4.233zm-7.853.027-2.297-1.16q.314-.258.575-.572 1.461-1.758 1.464-5.216 0-6.354-4.867-6.354-2.39 0-3.722 1.613-1.46 1.766-1.46 5.197 0 3.378 1.29 4.959 1.186 1.42 3.573 1.421a5.6 5.6 0 0 0 1.635-.225l2.99 1.785zm-7.44-2.869q-.759-1.25-.758-4.02 0-4.84 2.867-4.84c.435-.029.87.063 1.257.267.388.204.715.512.945.89q.761 1.256.761 3.968 0 4.876-2.87 4.876c-.435.03-.87-.063-1.257-.266a2.43 2.43 0 0 1-.946-.892m-3.855-.894a3.35 3.35 0 0 1-.306 1.486 3.4 3.4 0 0 1-.935 1.213q-1.239 1.05-3.323 1.054a6.8 6.8 0 0 1-3.773-1.208l.57-1.111a6.65 6.65 0 0 0 2.853.767 3.04 3.04 0 0 0 1.88-.517 1.73 1.73 0 0 0 .723-1.435c0-.767-.549-1.424-1.56-1.972-.93-.497-2.792-1.538-2.792-1.538-1.012-.714-1.516-1.485-1.516-2.75a3.1 3.1 0 0 1 .27-1.393c.196-.439.49-.83.862-1.143a4.33 4.33 0 0 1 2.922-.971 6.16 6.16 0 0 1 3.364.961l-.514 1.108a6.7 6.7 0 0 0-2.555-.534 2.32 2.32 0 0 0-1.574.477 1.6 1.6 0 0 0-.438.549 1.6 1.6 0 0 0-.16.676c0 .767.563 1.431 1.602 2.002.943.497 2.85 1.555 2.85 1.555 1.03.718 1.557 1.478 1.557 2.733"/><path fill="#00758f" d="M54.133 18.32a7.2 7.2 0 0 0-3.044.439c-.234.094-.613.094-.643.392.124.123.14.334.251.502.215.362.49.684.815.954.335.25.67.502 1.005.72.61.377 1.3.595 1.898.973.335.218.69.499 1.035.737.171.123.282.334.503.405v-.047c-.11-.14-.144-.335-.251-.502-.158-.154-.315-.298-.473-.452a7.4 7.4 0 0 0-1.629-1.583c-.503-.335-1.602-.817-1.803-1.393l-.034-.033a6.3 6.3 0 0 0 1.083-.251c.533-.14 1.005-.11 1.569-.251.251-.064.502-.14.754-.218v-.144c-.285-.281-.486-.67-.785-.924a21 21 0 0 0-2.587-1.924c-.49-.315-1.117-.516-1.636-.784-.185-.093-.5-.14-.61-.297a6.4 6.4 0 0 1-.644-1.209 40 40 0 0 1-1.287-2.724q-.345-.916-.798-1.784c-1.62-2.678-3.376-4.278-6.074-5.861a7.7 7.7 0 0 0-2.011-.643c-.396-.017-.788-.047-1.18-.06a6 6 0 0 1-.714-.556c-.895-.565-3.202-1.787-3.859-.174-.425 1.004.627 2.009 1.006 2.537q.454.55.798 1.175c.11.268.14.55.251.83q.345 1.077.818 2.102.253.508.58.971c.124.17.335.251.392.532-.22.311-.238.783-.362 1.175-.563 1.77-.335 3.963.456 5.265.252.392.848 1.252 1.646.92.707-.28.55-1.17.754-1.954.047-.19.017-.315.11-.439v.03c.219.439.44.86.645 1.303a8.9 8.9 0 0 0 2.038 2.095c.375.284.67.77 1.146.94v-.046h-.034a1.7 1.7 0 0 0-.358-.312 7.4 7.4 0 0 1-.818-.94 20 20 0 0 1-1.757-2.852 18 18 0 0 1-.67-1.503c-.094-.187-.094-.472-.251-.566a6 6 0 0 0-.755 1.065c-.298.67-.335 1.506-.439 2.366-.063 0-.03 0-.063.034-.5-.128-.67-.643-.862-1.081a6.78 6.78 0 0 1-.14-4.184c.11-.335.58-1.363.392-1.674-.094-.298-.41-.469-.58-.703a6 6 0 0 1-.567-1.004c-.375-.877-.563-1.848-.972-2.725a8.3 8.3 0 0 0-.785-1.208 7.7 7.7 0 0 1-.861-1.218c-.08-.174-.188-.455-.064-.643a.245.245 0 0 1 .222-.204c.2-.174.784.043.985.14a8 8 0 0 1 1.556.784c.217.157.452.452.737.532h.335c.503.11 1.066.03 1.539.17.794.267 1.553.63 2.26 1.082a13.93 13.93 0 0 1 4.893 5.355c.188.362.268.69.44 1.065.335.77.737 1.553 1.065 2.302.288.741.663 1.446 1.117 2.1.234.334 1.176.501 1.599.668q.553.19 1.082.439c.533.335 1.066.703 1.57 1.064.25.188 1.035.58 1.082.894"/><path fill="#f29111" d="M55.618 35.733h.335v-1.966h-.49l-.395 1.34-.457-1.34h-.47v1.966h.31v-1.498l.452 1.498h.235l.453-1.498zm-2.624 0h.336V34.1h.453v-.332h-1.265v.331h.466z"/></svg>
